usr/share/icons/big-icons/symbolic/actions/object-rows.svg

<svg xmlns="http://www.w3.org/2000/svg" viewBox="0 0 16 16">
<defs id="defs3051">
<style id="current-color-scheme" type="text/css">
.ColorScheme-Text{color:#fcfcfc}
</style>
</defs>
<path d="M2 2v3h12V2zm1 1h10v1H3zM2 6v4h12V6zm1 1h10v2H3zm-1 4v3h12v-3zm1 1h10v1H3z" class="ColorScheme-Text" style="fill:currentColor;fill-opacity:1;stroke:none"/>
</svg>

<svg xmlns="http://www.w3.org/2000/svg" viewBox="0 0 16 16">
  <defs id="defs3051">
    <style type="text/css" id="current-color-scheme">
      .ColorScheme-Text {
        color:#eff0f1;
      }
      </style>
  </defs>
 <path style="fill:currentColor;fill-opacity:1;stroke:none" 
     d="M 2 2 L 2 5 L 14 5 L 14 2 L 2 2 z M 3 3 L 13 3 L 13 4 L 3 4 L 3 3 z M 2 6 L 2 10 L 14 10 L 14 6 L 2 6 z M 3 7 L 13 7 L 13 9 L 3 9 L 3 7 z M 2 11 L 2 14 L 14 14 L 14 11 L 2 11 z M 3 12 L 13 12 L 13 13 L 3 13 L 3 12 z "
     class="ColorScheme-Text"
     />
</svg>
